img/menu-bg-left.svg

<svg width="52" height="250" viewBox="0 0 52 250" fill="none" xmlns="http://www.w3.org/2000/svg">
<path d="M12.0098 176.4L-18.459 187.826C-21.2422 188.852 -23 191.488 -23 194.418V227.377C-23 230.014 -21.5352 232.504 -19.1914 233.676L11.2773 248.91C13.3281 249.936 15.5254 249.936 17.5762 248.91L48.0449 233.676C50.3887 232.504 51.8535 230.014 51.8535 227.377V194.418C51.8535 191.488 50.0957 188.852 47.3125 187.826L16.8438 176.4C15.3789 175.814 13.6211 175.814 12.0098 176.4ZM14.5 185.482L42.625 196.029V196.176L14.5 207.602L-13.625 196.176V196.029L14.5 185.482ZM19.1875 237.631V215.805L42.625 206.283V225.912L19.1875 237.631Z" fill="#FFBF50" fill-opacity="0.2"/>
<path d="M12.0098 -23.5996L-18.459 -12.1738C-21.2422 -11.1484 -23 -8.51172 -23 -5.58203V27.377C-23 30.0137 -21.5352 32.5039 -19.1914 33.6758L11.2773 48.9102C13.3281 49.9355 15.5254 49.9355 17.5762 48.9102L48.0449 33.6758C50.3887 32.5039 51.8535 30.0137 51.8535 27.377V-5.58203C51.8535 -8.51172 50.0957 -11.1484 47.3125 -12.1738L16.8438 -23.5996C15.3789 -24.1855 13.6211 -24.1855 12.0098 -23.5996ZM14.5 -14.5176L42.625 -3.9707V-3.82422L14.5 7.60156L-13.625 -3.82422V-3.9707L14.5 -14.5176ZM19.1875 37.6309V15.8047L42.625 6.2832V25.9121L19.1875 37.6309Z" fill="#FFBF50" fill-opacity="0.2"/>
</svg>

<svg width="52" height="250" fill="none" xmlns="http://www.w3.org/2000/svg"><path d="M12.01 176.4l-30.469 11.426c-2.783 1.026-4.541 3.662-4.541 6.592v32.959c0 2.637 1.465 5.127 3.809 6.299l30.468 15.234c2.051 1.026 4.248 1.026 6.3 0l30.468-15.234c2.344-1.172 3.808-3.662 3.808-6.299v-32.959c0-2.93-1.757-5.566-4.54-6.592L16.843 176.4c-1.464-.586-3.222-.586-4.833 0zm2.49 9.082l28.125 10.547v.147L14.5 207.602l-28.125-11.426v-.147L14.5 185.482zm4.688 52.149v-21.826l23.437-9.522v19.629l-23.438 11.719zM12.01-23.6l-30.47 11.426C-21.242-11.148-23-8.512-23-5.582v32.959c0 2.637 1.465 5.127 3.809 6.299L11.277 48.91c2.051 1.026 4.248 1.026 6.3 0l30.468-15.234c2.344-1.172 3.808-3.662 3.808-6.299V-5.582c0-2.93-1.757-5.566-4.54-6.592L16.843-23.6c-1.464-.585-3.222-.585-4.833 0zm2.49 9.082L42.625-3.97v.147L14.5 7.602-13.625-3.824v-.147L14.5-14.518zm4.688 52.149V15.805l23.437-9.522v19.63L19.187 37.63z" fill="#FFBF50" fill-opacity=".2"/></svg>
